source/img/htmlacademy.svg

<svg height="50" viewBox="0 0 40 50" width="40" xmlns="http://www.w3.org/2000/svg"><path d="m20.2 0h-.2l-19.7 2.1v36.2l19.7 11.7 19.7-11.7v-36.2zm17 36.8-17.2 10.2-17.2-10.2v-14.8l17.1 10.2v1.8l-11.7-7v1.8l11.8 7.1v1.9l-11.8-7v1.8l11.8 7 11.9-7.1v-7.6l5.3-3.2zm-.1-17-4.7 2.8-2.2 1.3-10.3-6.1v1.8l8.8 5.3h-.1l-.2.1-1.3.7-7.3-4.3v1.8l5.8 3.4-1.4.9-4.3-2.6v1.8l2.9 1.7-2.9 1.7-17-10.1 17-10.2zm.1-1.8-17.3-10.2-17.1 10.2v-13.6l17.2-1.8 17.2 1.8z" fill="#2e368f"/></svg>

<svg height="50" width="40" xmlns="http://www.w3.org/2000/svg"><path d="M20.2 0H20L.3 2.1v36.2L20 50l19.7-11.7V2.1zm17 36.8L20 47 2.8 36.8V22l17.1 10.2V34L8.2 27v1.8L20 35.9v1.9l-11.8-7v1.8l11.8 7 11.9-7.1v-7.6l5.3-3.2zm-.1-17l-4.7 2.8-2.2 1.3-10.3-6.1v1.8l8.8 5.3h-.1l-.2.1-1.3.7-7.3-4.3v1.8l5.8 3.4-1.4.9-4.3-2.6v1.8l2.9 1.7-2.9 1.7L2.9 20l17-10.2zm.1-1.8L19.9 7.8 2.8 18V4.4L20 2.6l17.2 1.8z" fill="#2e368f"/></svg>
